styles/1/Numix-Circle/48x48/apps/shares.svg

<?xml version="1.0" encoding="UTF-8" standalone="no"?>
<svg
   xmlns:dc="http://purl.org/dc/elements/1.1/"
   xmlns:cc="http://creativecommons.org/ns#"
   xmlns:rdf="http://www.w3.org/1999/02/22-rdf-syntax-ns#"
   xmlns:svg="http://www.w3.org/2000/svg"
   xmlns="http://www.w3.org/2000/svg"
   xmlns:sodipodi="http://sodipodi.sourceforge.net/DTD/sodipodi-0.dtd"
   xmlns:inkscape="http://www.inkscape.org/namespaces/inkscape"
   viewBox="0 0 48 48"
   id="svg4533"
   version="1.1"
   inkscape:version="0.91 r"
   width="100%"
   height="100%"
   sodipodi:docname="shares.svg">
  <metadata
     id="metadata4596">
    <rdf:RDF>
      <cc:Work
         rdf:about="">
        <dc:format>image/svg+xml</dc:format>
        <dc:type
           rdf:resource="http://purl.org/dc/dcmitype/StillImage" />
      </cc:Work>
    </rdf:RDF>
  </metadata>
  <sodipodi:namedview
     pagecolor="#ffffff"
     bordercolor="#666666"
     borderopacity="1"
     objecttolerance="10"
     gridtolerance="10"
     guidetolerance="10"
     inkscape:pageopacity="0"
     inkscape:pageshadow="2"
     inkscape:window-width="1280"
     inkscape:window-height="998"
     id="namedview4594"
     showgrid="true"
     inkscape:zoom="6.9532167"
     inkscape:cx="5.3104493"
     inkscape:cy="28.29846"
     inkscape:window-x="0"
     inkscape:window-y="0"
     inkscape:window-maximized="1"
     inkscape:current-layer="svg4533">
    <inkscape:grid
       type="xygrid"
       id="grid7074" />
  </sodipodi:namedview>
  <defs
     id="defs4535">
    <linearGradient
       id="linearGradient3764"
       x1="1"
       x2="47"
       gradientUnits="userSpaceOnUse"
       gradientTransform="matrix(0,-1,1,0,-1.5e-6,47.999998)">
      <stop
         stop-color="#dc810c"
         stop-opacity="1"
         id="stop4538" />
      <stop
         offset="1"
         stop-color="#ef8b0d"
         stop-opacity="1"
         id="stop4540" />
    </linearGradient>
  </defs>
  <g
     id="g4552">
    <path
       d="m 36.31 5 c 5.859 4.062 9.688 10.831 9.688 18.5 c 0 12.426 -10.07 22.5 -22.5 22.5 c -7.669 0 -14.438 -3.828 -18.5 -9.688 c 1.037 1.822 2.306 3.499 3.781 4.969 c 4.085 3.712 9.514 5.969 15.469 5.969 c 12.703 0 23 -10.298 23 -23 c 0 -5.954 -2.256 -11.384 -5.969 -15.469 c -1.469 -1.475 -3.147 -2.744 -4.969 -3.781 z m 4.969 3.781 c 3.854 4.113 6.219 9.637 6.219 15.719 c 0 12.703 -10.297 23 -23 23 c -6.081 0 -11.606 -2.364 -15.719 -6.219 c 4.16 4.144 9.883 6.719 16.219 6.719 c 12.703 0 23 -10.298 23 -23 c 0 -6.335 -2.575 -12.06 -6.719 -16.219 z"
       opacity="0.05"
       id="path4554" />
    <path
       d="m 41.28 8.781 c 3.712 4.085 5.969 9.514 5.969 15.469 c 0 12.703 -10.297 23 -23 23 c -5.954 0 -11.384 -2.256 -15.469 -5.969 c 4.113 3.854 9.637 6.219 15.719 6.219 c 12.703 0 23 -10.298 23 -23 c 0 -6.081 -2.364 -11.606 -6.219 -15.719 z"
       opacity="0.1"
       id="path4556" />
    <path
       d="m 31.25 2.375 c 8.615 3.154 14.75 11.417 14.75 21.13 c 0 12.426 -10.07 22.5 -22.5 22.5 c -9.708 0 -17.971 -6.135 -21.12 -14.75 a 23 23 0 0 0 44.875 -7 a 23 23 0 0 0 -16 -21.875 z"
       opacity="0.2"
       id="path4558" />
  </g>
  <g
     id="g4560">
    <path
       d="m 24 1 c 12.703 0 23 10.297 23 23 c 0 12.703 -10.297 23 -23 23 -12.703 0 -23 -10.297 -23 -23 0 -12.703 10.297 -23 23 -23 z"
       fill="url(#linearGradient3764)"
       fill-opacity="1"
       id="path4562" />
  </g>
  <g
     id="g4564" />
  <path
     style="opacity:0.1;fill:#000000;fill-opacity:1;fill-rule:nonzero;stroke:none"
     d="M 13.8125 16 C 13.371574 16.05099 12.997 16.464595 13 16.9375 L 13 34.03125 C 13.000058 34.53115 13.434329 35 13.90625 35 L 36 35 C 36.472925 35 37 34.4999 37 34 L 37 19 C 37 18.5001 36.472925 18 36 18 L 27 18 L 27 17 C 26.9987 16.35213 26.550909 16 26 16 L 13.8125 16 z M 28.75 21 C 29.992 21 31 22.012 31 23.25 C 31 24.492 29.988 25.5 28.75 25.5 C 28.145 25.5 27.5945 25.266 27.1875 24.875 L 23.46875 26.71875 C 23.48075 26.80875 23.5 26.907 23.5 27 C 23.5 27.094 23.47175 27.19125 23.46875 27.28125 L 27.1875 29.125 C 27.5935 28.734 28.144 28.5 28.75 28.5 C 29.992 28.5 31 29.512 31 30.75 C 31 31.992 29.988 33 28.75 33 C 27.508 33 26.5 31.988 26.5 30.75 C 26.5 30.656 26.52025 30.55875 26.53125 30.46875 L 22.8125 28.625 C 22.4065 29.02 21.863 29.25 21.25 29.25 C 20.012 29.25 19 28.238 19 27 C 19 25.758 20.016 24.75 21.25 24.75 C 21.859 24.75 22.4025 24.98 22.8125 25.375 L 26.53125 23.53125 C 26.51925 23.44125 26.5 23.343 26.5 23.25 C 26.5 22.008 27.512 21 28.75 21 z "
     id="path45" />
  <g
     id="g4590">
    <path
       d="m 40.03 7.531 c 3.712 4.084 5.969 9.514 5.969 15.469 0 12.703 -10.297 23 -23 23 c -5.954 0 -11.384 -2.256 -15.469 -5.969 4.178 4.291 10.01 6.969 16.469 6.969 c 12.703 0 23 -10.298 23 -23 0 -6.462 -2.677 -12.291 -6.969 -16.469 z"
       opacity="0.1"
       id="path4592" />
  </g>
  <path
     style="fill:#ececec;fill-opacity:1;fill-rule:nonzero;stroke:none"
     d="M 12.8125 15 C 12.371574 15.05096 11.997 15.496148 12 15.96875 L 12 33.03125 C 12.000058 33.53083 12.434329 34 12.90625 34 L 35 34 C 35.472922 34 36 33.499579 36 33 L 36 18.03125 C 36 17.531671 35.472922 17.03125 35 17.03125 L 26 17.03125 L 26 16 C 25.9987 15.352546 25.550907 15 25 15 L 12.8125 15 z M 27.75 20 C 28.992 20 30 21.012 30 22.25 C 30 23.492 28.988 24.5 27.75 24.5 C 27.145 24.5 26.5945 24.266 26.1875 23.875 L 22.46875 25.71875 C 22.48075 25.80875 22.5 25.907 22.5 26 C 22.5 26.094 22.47175 26.19125 22.46875 26.28125 L 26.1875 28.125 C 26.5935 27.734 27.144 27.5 27.75 27.5 C 28.992 27.5 30 28.512 30 29.75 C 30 30.992 28.988 32 27.75 32 C 26.508 32 25.5 30.988 25.5 29.75 C 25.5 29.656 25.52025 29.55875 25.53125 29.46875 L 21.8125 27.625 C 21.4065 28.02 20.863 28.25 20.25 28.25 C 19.012 28.25 18 27.238 18 26 C 18 24.758 19.016 23.75 20.25 23.75 C 20.859 23.75 21.4025 23.98 21.8125 24.375 L 25.53125 22.53125 C 25.51925 22.44125 25.5 22.343 25.5 22.25 C 25.5 21.008 26.512 20 27.75 20 z "
     id="path55" />
</svg>

<svg xmlns="http://www.w3.org/2000/svg" viewBox="0 0 48 48">
 <defs>
  <linearGradient id="linearGradient3764" x1="1" x2="47" gradientUnits="userSpaceOnUse" gradientTransform="matrix(0,-1,1,0,-1.5e-6,47.999998)">
   <stop style="stop-color:#dc810c;stop-opacity:1"/>
   <stop offset="1" style="stop-color:#ef8b0d;stop-opacity:1"/>
  </linearGradient>
 </defs>
 <g>
  <path d="m 36.31 5 c 5.859 4.062 9.688 10.831 9.688 18.5 c 0 12.426 -10.07 22.5 -22.5 22.5 c -7.669 0 -14.438 -3.828 -18.5 -9.688 c 1.037 1.822 2.306 3.499 3.781 4.969 c 4.085 3.712 9.514 5.969 15.469 5.969 c 12.703 0 23 -10.298 23 -23 c 0 -5.954 -2.256 -11.384 -5.969 -15.469 c -1.469 -1.475 -3.147 -2.744 -4.969 -3.781 z m 4.969 3.781 c 3.854 4.113 6.219 9.637 6.219 15.719 c 0 12.703 -10.297 23 -23 23 c -6.081 0 -11.606 -2.364 -15.719 -6.219 c 4.16 4.144 9.883 6.719 16.219 6.719 c 12.703 0 23 -10.298 23 -23 c 0 -6.335 -2.575 -12.06 -6.719 -16.219 z" style="opacity:0.05"/>
  <path d="m 41.28 8.781 c 3.712 4.085 5.969 9.514 5.969 15.469 c 0 12.703 -10.297 23 -23 23 c -5.954 0 -11.384 -2.256 -15.469 -5.969 c 4.113 3.854 9.637 6.219 15.719 6.219 c 12.703 0 23 -10.298 23 -23 c 0 -6.081 -2.364 -11.606 -6.219 -15.719 z" style="opacity:0.1"/>
  <path d="m 31.25 2.375 c 8.615 3.154 14.75 11.417 14.75 21.13 c 0 12.426 -10.07 22.5 -22.5 22.5 c -9.708 0 -17.971 -6.135 -21.12 -14.75 a 23 23 0 0 0 44.875 -7 a 23 23 0 0 0 -16 -21.875 z" style="opacity:0.2"/>
 </g>
 <g>
  <path d="m 24 1 c 12.703 0 23 10.297 23 23 c 0 12.703 -10.297 23 -23 23 -12.703 0 -23 -10.297 -23 -23 0 -12.703 10.297 -23 23 -23 z" style="fill:url(#linearGradient3764);fill-opacity:1"/>
 </g>
 <path d="m 13.813 16 c -0.441 0.051 -0.816 0.465 -0.813 0.938 l 0 17.09 c 0 0.5 0.434 0.969 0.906 0.969 l 22.09 0 c 0.473 0 1 -0.5 1 -1 l 0 -15 c 0 -0.5 -0.527 -1 -1 -1 l -9 0 l 0 -1 c 0 -0.648 -0.449 -1 -1 -1 l -12.188 0 z m 14.938 5 c 1.242 0 2.25 1.012 2.25 2.25 c 0 1.242 -1.012 2.25 -2.25 2.25 c -0.605 0 -1.155 -0.234 -1.563 -0.625 l -3.719 1.844 c 0.012 0.09 0.031 0.188 0.031 0.281 c 0 0.094 -0.028 0.191 -0.031 0.281 l 3.719 1.844 c 0.406 -0.391 0.956 -0.625 1.563 -0.625 c 1.242 0 2.25 1.012 2.25 2.25 c 0 1.242 -1.012 2.25 -2.25 2.25 c -1.242 0 -2.25 -1.012 -2.25 -2.25 c 0 -0.094 0.02 -0.191 0.031 -0.281 l -3.719 -1.844 c -0.406 0.395 -0.95 0.625 -1.563 0.625 c -1.238 0 -2.25 -1.012 -2.25 -2.25 c 0 -1.242 1.016 -2.25 2.25 -2.25 c 0.609 0 1.152 0.23 1.563 0.625 l 3.719 -1.844 c -0.012 -0.09 -0.031 -0.188 -0.031 -0.281 c 0 -1.242 1.012 -2.25 2.25 -2.25 z" style="fill:#000;opacity:0.1;fill-opacity:1;stroke:none;fill-rule:nonzero"/>
 <g>
  <path d="m 40.03 7.531 c 3.712 4.084 5.969 9.514 5.969 15.469 0 12.703 -10.297 23 -23 23 c -5.954 0 -11.384 -2.256 -15.469 -5.969 4.178 4.291 10.01 6.969 16.469 6.969 c 12.703 0 23 -10.298 23 -23 0 -6.462 -2.677 -12.291 -6.969 -16.469 z" style="opacity:0.1"/>
 </g>
 <path d="m 12.813 15 c -0.441 0.051 -0.816 0.496 -0.813 0.969 l 0 17.06 c 0 0.5 0.434 0.969 0.906 0.969 l 22.09 0 c 0.473 0 1 -0.5 1 -1 l 0 -14.969 c 0 -0.5 -0.527 -1 -1 -1 l -9 0 l 0 -1.031 c 0 -0.647 -0.449 -1 -1 -1 l -12.188 0 z m 14.938 5 c 1.242 0 2.25 1.012 2.25 2.25 c 0 1.242 -1.012 2.25 -2.25 2.25 c -0.605 0 -1.155 -0.234 -1.563 -0.625 l -3.719 1.844 c 0.012 0.09 0.031 0.188 0.031 0.281 c 0 0.094 -0.028 0.191 -0.031 0.281 l 3.719 1.844 c 0.406 -0.391 0.956 -0.625 1.563 -0.625 c 1.242 0 2.25 1.012 2.25 2.25 c 0 1.242 -1.012 2.25 -2.25 2.25 c -1.242 0 -2.25 -1.012 -2.25 -2.25 c 0 -0.094 0.02 -0.191 0.031 -0.281 l -3.719 -1.844 c -0.406 0.395 -0.95 0.625 -1.563 0.625 c -1.238 0 -2.25 -1.012 -2.25 -2.25 c 0 -1.242 1.016 -2.25 2.25 -2.25 c 0.609 0 1.152 0.23 1.563 0.625 l 3.719 -1.844 c -0.012 -0.09 -0.031 -0.188 -0.031 -0.281 c 0 -1.242 1.012 -2.25 2.25 -2.25 z" style="fill:#ececec;fill-opacity:1;stroke:none;fill-rule:nonzero"/>
</svg>
